brandFactory_export/3.Masa/Archivo bloqueado_3Masa.svg

<?xml version="1.0" encoding="UTF-8"?>
<svg width="24px" height="24px" viewBox="0 0 24 24" version="1.1" xmlns="http://www.w3.org/2000/svg" xmlns:xlink="http://www.w3.org/1999/xlink">
    <title>3.Masa/Archivo bloqueado_3Masa</title>
    <g id="Symbols" stroke="none" stroke-width="1" fill="none" fill-rule="evenodd">
        <g id="3.Masa/Archivo-bloqueado_3Masa" fill="#5CB615" fill-rule="nonzero">
            <path d="M4.0302521,9.75630252 C4.17815126,9.75630252 4.4302521,9.75630252 4.4302521,8.64369748 C4.4302521,7.52773109 4.18151261,7.52773109 4.0302521,7.52773109 C3.8789916,7.52773109 3.62689076,7.52773109 3.62689076,8.64369748 C3.62689076,9.75630252 3.86890756,9.75630252 4.0302521,9.75630252 Z M4.0302521,6.40504202 C4.72941176,6.40504202 5.56302521,6.79159664 5.56302521,8.64369748 C5.56302521,10.492437 4.72941176,10.8789916 4.0302521,10.8789916 C3.32773109,10.8789916 2.49411765,10.4890756 2.49411765,8.64369748 C2.49411765,6.79159664 3.32773109,6.40504202 4.0302521,6.40504202 Z M7.52268908,9.75630252 C7.67058824,9.75630252 7.92268908,9.75630252 7.92268908,8.64369748 C7.92268908,7.52773109 7.67394958,7.52773109 7.52268908,7.52773109 C7.37142857,7.52773109 7.11932773,7.52773109 7.11932773,8.64369748 C7.11932773,9.75630252 7.36134454,9.75630252 7.52268908,9.75630252 Z M7.52268908,6.40504202 C8.22184874,6.40504202 9.05546218,6.79159664 9.05546218,8.64369748 C9.05546218,10.492437 8.22184874,10.8789916 7.52268908,10.8789916 C6.82016807,10.8789916 5.98655462,10.4890756 5.98655462,8.64369748 C5.98655462,6.79159664 6.82016807,6.40504202 7.52268908,6.40504202 Z M4.65210084,15.594958 C4.92436975,15.594958 5.14285714,15.8134454 5.14285714,16.0857143 L5.14285714,16.2134454 C5.14285714,16.4857143 4.92436975,16.7042017 4.65210084,16.7042017 L3.42184874,16.7042017 C3.14957983,16.7042017 2.93109244,16.4857143 2.93109244,16.2134454 L2.93109244,16.0857143 C2.93109244,15.8134454 3.14957983,15.594958 3.42184874,15.594958 L3.52268908,15.594958 L3.52268908,13.4504202 L3.46218487,13.4504202 C3.18991597,13.4504202 2.97142857,13.2319328 2.97142857,12.9596639 L2.97142857,12.8521008 C2.97142857,12.6 3.16302521,12.3882353 3.41512605,12.3647059 C3.63697479,12.3445378 3.84201681,12.3344538 3.92268908,12.3344538 C4.60840336,12.3344538 4.64537815,12.8789916 4.64537815,12.9865546 L4.65210084,15.594958 L4.65210084,15.594958 Z M7.52268908,15.6487395 C7.67058824,15.6487395 7.92268908,15.6487395 7.92268908,14.5361345 C7.92268908,13.4201681 7.67394958,13.4201681 7.52268908,13.4201681 C7.37142857,13.4201681 7.11932773,13.4201681 7.11932773,14.5361345 C7.11932773,15.6487395 7.36134454,15.6487395 7.52268908,15.6487395 Z M7.52268908,12.297479 C8.22184874,12.297479 9.05546218,12.6840336 9.05546218,14.5361345 C9.05546218,16.3848739 8.22184874,16.7714286 7.52268908,16.7714286 C6.82016807,16.7714286 5.98655462,16.3815126 5.98655462,14.5361345 C5.98655462,12.687395 6.82016807,12.297479 7.52268908,12.297479 Z M20.3764706,11.3294118 C20.3764706,9.11092437 18.8268908,8.74453782 17.902521,8.71764706 L17.6067227,8.71764706 C16.702521,8.72773109 15.1697479,9.07058824 15.1697479,11.3092437 L15.1697479,11.907563 L20.3731092,11.897479 L20.3731092,11.3294118 L20.3764706,11.3294118 Z M11.7781513,14.3445378 C11.7781513,13.3932773 12.1714286,12.8319328 12.4941176,12.5294118 C12.8773109,12.1764706 13.3378151,12.0184874 13.7008403,11.9613445 L13.7008403,11.312605 C13.7008403,8.33781513 15.8016807,7.26554622 17.6,7.2487395 L17.9327731,7.2487395 C19.7378151,7.29915966 21.8487395,8.38823529 21.8487395,11.3327731 L21.8487395,12.0084034 C21.9462185,12.0285714 22.0436975,12.0487395 22.1344538,12.0857143 L22.1344538,5.37983193 C22.1344538,5.24201681 22.0268908,5.12436975 21.8789916,5.12436975 L11.307563,5.12436975 C10.9042017,5.12436975 10.5714286,4.79159664 10.5714286,4.38823529 L10.5714286,2.73781513 C10.5714286,2.58991597 10.4638655,2.48235294 10.3159664,2.48235294 L1.73781513,2.48235294 C1.58991597,2.48235294 1.47226891,2.58991597 1.47226891,2.73781513 L1.47226891,18.9495798 C1.47226891,19.097479 1.58991597,19.205042 1.73781513,19.205042 L11.7781513,19.205042 L11.7781513,16.6806723 C11.7277311,16.6907563 11.6907563,16.7109244 11.6302521,16.7109244 L10.4033613,16.7109244 C10.1277311,16.7109244 9.91260504,16.4857143 9.91260504,16.2201681 L9.91260504,16.092437 C9.91260504,15.8168067 10.1277311,15.6016807 10.4033613,15.6016807 L10.5008403,15.6016807 L10.5008403,13.4504202 L10.4403361,13.4504202 C10.1647059,13.4504202 9.94957983,13.2319328 9.94957983,12.9596639 L9.94957983,12.8521008 C9.94957983,12.5966387 10.1445378,12.3915966 10.389916,12.3613445 C10.6151261,12.3411765 10.8235294,12.3310924 10.9008403,12.3310924 C11.5865546,12.3310924 11.6268908,12.8823529 11.6268908,12.989916 L11.6268908,15.6016807 C11.6773109,15.6016807 11.7243697,15.6117647 11.7747899,15.6319328 L11.7747899,14.3445378 L11.7781513,14.3445378 Z M23.6067227,14.0184874 C23.6268908,14.2235294 23.6268908,14.3714286 23.6168067,14.4117647 L23.6168067,20.2033613 C23.6268908,21.1478992 23.2336134,21.7058824 22.9109244,22.0117647 C22.1546218,22.7176471 21.1058824,22.6705882 20.9882353,22.6571429 L14.3529412,22.6571429 C13.3109244,22.6571429 12.712605,22.2571429 12.4,21.9109244 C12.0168067,21.507563 11.8689076,21.0268908 11.8117647,20.6739496 L1.74117647,20.6739496 C0.779831933,20.6739496 0.00336134454,19.897479 0.00336134454,18.9462185 L0.00336134454,2.73445378 C0.00336134454,1.77983193 0.776470588,1.00672269 1.74117647,1.00672269 L10.3193277,1.00672269 C11.2705882,1.00672269 12.0470588,1.77983193 12.0470588,2.73445378 L12.0470588,3.6487395 L21.8823529,3.6487395 C22.8369748,3.6487395 23.610084,4.42521008 23.610084,5.37647059 L23.610084,14.0184874 L23.6067227,14.0184874 Z M17.7613445,18.4655462 L17.6369748,18.4655462 C16.8067227,18.4521008 16.8067227,17.8067227 16.8067227,17.5647059 C16.8067227,17.3226891 16.8067227,16.6806723 17.6201681,16.6739496 L17.7512605,16.6739496 C18.594958,16.6941176 18.594958,17.3327731 18.594958,17.5714286 C18.594958,17.8134454 18.594958,18.4487395 17.7613445,18.4655462 L17.7613445,18.4655462 Z M17.7848739,15.2016807 L17.610084,15.2016807 C16.4773109,15.2117647 15.3344538,15.9445378 15.3344538,17.5647059 C15.3344538,19.1815126 16.4806723,19.9210084 17.6268908,19.9378151 L17.7882353,19.9378151 C18.9243697,19.9176471 20.0672269,19.1781513 20.0672269,17.5747899 C20.0672269,15.9747899 18.9210084,15.2285714 17.7848739,15.2016807 L17.7848739,15.2016807 Z" id="Archivo-bloqueado_3Masa"></path>
        </g>
    </g>
</svg>

<svg width="24" height="24" viewBox="0 0 24 24" xmlns="http://www.w3.org/2000/svg"><path d="M4.03 9.756c.148 0 .4 0 .4-1.112 0-1.116-.248-1.116-.4-1.116-.151 0-.403 0-.403 1.116 0 1.112.242 1.112.403 1.112zm0-3.351c.7 0 1.533.387 1.533 2.239 0 1.848-.834 2.235-1.533 2.235-.702 0-1.536-.39-1.536-2.235 0-1.852.834-2.239 1.536-2.239zm3.493 3.351c.148 0 .4 0 .4-1.112 0-1.116-.25-1.116-.4-1.116-.152 0-.404 0-.404 1.116 0 1.112.242 1.112.404 1.112zm0-3.351c.699 0 1.532.387 1.532 2.239 0 1.848-.833 2.235-1.532 2.235-.703 0-1.536-.39-1.536-2.235 0-1.852.833-2.239 1.536-2.239zm-2.87 9.19a.49.49 0 01.49.49v.128a.49.49 0 01-.49.491H3.421a.49.49 0 01-.49-.49v-.128a.49.49 0 01.49-.491h.1V13.45h-.06a.49.49 0 01-.49-.49v-.108a.49.49 0 01.443-.487c.222-.02.427-.03.508-.03.685 0 .722.544.722.652l.007 2.608zm2.87.054c.148 0 .4 0 .4-1.113 0-1.116-.25-1.116-.4-1.116-.152 0-.404 0-.404 1.116 0 1.113.242 1.113.404 1.113zm0-3.352c.699 0 1.532.387 1.532 2.24 0 1.848-.833 2.234-1.532 2.234-.703 0-1.536-.39-1.536-2.235 0-1.849.833-2.239 1.536-2.239zm12.853-.968c0-2.218-1.55-2.584-2.473-2.611h-.296c-.904.01-2.437.353-2.437 2.591v.599l5.203-.01v-.569h.003zm-8.598 3.016c0-.952.393-1.513.716-1.816.383-.353.844-.51 1.207-.568v-.648c0-2.975 2.1-4.047 3.899-4.064h.333c1.805.05 3.916 1.14 3.916 4.084v.675c.097.02.195.04.285.078V5.38a.253.253 0 00-.255-.256H11.308a.74.74 0 01-.737-.736v-1.65a.247.247 0 00-.255-.256H1.738c-.148 0-.266.108-.266.256V18.95c0 .147.118.255.266.255h10.04v-2.524c-.05.01-.087.03-.148.03h-1.227a.491.491 0 01-.49-.49v-.129c0-.275.215-.49.49-.49h.098V13.45h-.06a.487.487 0 01-.491-.49v-.108c0-.255.195-.46.44-.49.225-.02.434-.03.51-.03.687 0 .727.55.727.658v2.612c.05 0 .097.01.148.03v-1.287h.003zm11.829-.327c.02.206.02.353.01.394v5.791c.01.945-.383 1.503-.706 1.809-.756.706-1.805.659-1.923.645h-6.635c-1.042 0-1.64-.4-1.953-.746-.383-.403-.531-.884-.588-1.237H1.742a1.734 1.734 0 01-1.739-1.728V2.734a1.73 1.73 0 011.738-1.727h8.578a1.73 1.73 0 011.728 1.727v.915h9.835a1.73 1.73 0 011.728 1.727v8.642h-.003zm-5.846 4.448h-.124c-.83-.014-.83-.66-.83-.901 0-.242 0-.884.813-.891h.131c.844.02.844.659.844.897 0 .242 0 .878-.834.895zm.024-3.264h-.175c-1.133.01-2.276.743-2.276 2.363 0 1.617 1.147 2.356 2.293 2.373h.161c1.136-.02 2.28-.76 2.28-2.363 0-1.6-1.147-2.346-2.283-2.373z" fill="#5CB615" fill-rule="nonzero"/></svg>
